X:1
T:St. Cyprian (Goss), LMD
T:St. Cyprian (Goss), LMD
T:John Goss (1800-1880)
T:Public Domain Courtesy of the Cyber Hymnal™
C:John Goss (1800-1880)
Z:Public Domain
Z:Courtesy of the Cyber Hymnal™
%%score ( 1 2 ) ( 3 4 )
L:1/8
Q:1/4=115
M:3/4
K:D
V:1 treble 
V:2 treble 
V:3 bass 
V:4 bass 
V:1
 [DA]2 | [Fd]2 [Ec]2 [CB]2 | [DA]2 [DF]2 [DB]2 | [DA]4 [A,A]2 | [B,D]2 [CE]2 [DF]2 | %5
 [DG]2 [DA]2 [DB]2 | [CE]4 [EA]2 | [DA]2 [D^G]2 [B,B]2 | [EB]2 [EA]2 [Ec]2 | [DF]4 [Fd]2 | %10
 [Ed]2 [Ec]2 [FB]2 | [Ee]2 [EA]2 [D^G]2 | [CA]4 [CA]2 | [^DA]2 [DG]2 [DF]2 | [EB]2 [EG]2 [^DF]2 | %15
 E4 [EG]2 | [DF]2 [CE]2 D2 | [DB]2 [Gc]2 [Fd]2 | [Ec]4 [CA]2 | [DB]2 [Ac]2 [GB]2 | %20
 [FA]2 [DF]2 [DB]2 | [DA]4 [Fd]2 | [Gd]2 [DB]2 [EG]2 | [CG]2 [DF]2 [CE]2 | D4 |] %25
V:2
 x2 | x6 | x6 | x6 | x6 | x6 | x6 | x6 | x6 | x6 | x6 | x6 | x6 | x6 | x6 | E4 x2 | x4 D2 | x6 | %18
 x6 | x6 | x6 | x6 | x6 | x6 | D4 |] %25
V:3
 [D,F,]2 | [D,A,]2 [E,G,]2 G,2 | [F,A,]2 [D,A,]2 [G,,G,]2 | [D,F,]4 [C,E,]2 | %4
 [B,,F,]2 [A,,A,]2 [D,A,]2 | [B,,G,]2 [A,,F,]2 [G,,B,]2 | [A,,A,]4 [A,,C]2 | %7
 [B,,B,]2 [B,,B,]2 [D,^G,]2 | [C,E,]2 [C,A,]2 [A,,A,]2 | [D,A,]4 [B,,B,]2 | %10
 [C,^G,]2 [C,A,]2 [D,D]2 | [E,D]2 [E,C]2 [E,B,]2 | [A,,A,]4 [A,,A,]2 | [B,,F,]2 [B,,B,]2 [A,,B,]2 | %14
 [G,,B,]2 [B,,B,]2 [B,,A,]2 | [E,G,]4 [C,A,]2 | [D,A,]2 [E,G,]2 [F,A,]2 | [G,B,]2 [E,A,]2 [D,A,]2 | %18
 [A,,A,]4 [A,,A,]2 | [B,,F,]2 [C,E,]2 [C,E,]2 | [D,F,]2 [D,A,]2 [G,,G,]2 | [D,F,]4 [=C,A,]2 | %22
 [B,,G,]2 G,2 [E,B,]2 | A,2 A,2 [A,,G,]2 | [D,F,]4 |] %25
V:4
 x2 | x4 G,2 | x6 | x6 | x6 | x6 | x6 | x6 | x6 | x6 | x6 | x6 | x6 | x6 | x6 | x6 | x6 | x6 | x6 | %19
 x6 | x6 | x6 | x2 G,2 x2 | A,2 A,2 x2 | x4 |] %25

